img/card4.svg

<svg width="61" height="91" viewBox="0 0 61 91" fill="none" xmlns="http://www.w3.org/2000/svg">
<rect x="0.392578" y="0.0498047" width="60.057" height="90.0855" rx="4.61977" fill="white"/>
<mask id="mask0_1592_9465" style="mask-type:alpha" maskUnits="userSpaceOnUse" x="1" y="1" width="58" height="87">
<path d="M11.2824 2.3597H53.5203C55.7528 2.3597 57.5626 4.1695 57.5626 6.402L57.5625 70.5625C57.5625 71.8044 56.5557 72.8112 55.3138 72.8112C53.6623 72.8112 52.249 73.9969 51.962 75.6233L50.8353 82.008C50.6771 82.9045 51.0881 83.8058 51.8687 84.2741C52.7655 84.8122 52.3997 86.1884 51.3541 86.2102L6.4077 87.1466C4.09103 87.1949 2.20803 85.2897 2.28334 82.9738L4.3241 20.222C4.37573 18.6343 5.67773 17.374 7.26623 17.374C9.52984 17.374 11.3649 15.5389 11.3649 13.2753L11.3649 8.21691C11.3649 7.25616 10.9125 6.35148 10.1439 5.77503C8.68518 4.68097 9.45894 2.3597 11.2824 2.3597Z" fill="#C4C4C4" stroke="black" stroke-width="1.15494"/>
</mask>
<g mask="url(#mask0_1592_9465)">
<rect x="6.1678" y="5.24715" width="49.6625" height="79.691" rx="4.0423" stroke="black" stroke-width="1.15494"/>
</g>
<path d="M16.6963 19.6839H11.8157C13.7571 18.5462 14.1011 17.6245 14.256 15.8054L11.0023 17.3568C9.22266 16.1671 9.12927 15.4889 11.0023 14.254L14.256 15.8054L12.629 11.9269C13.6595 9.91289 14.6625 9.98775 15.8828 11.9269L14.256 15.8054L17.9165 14.254C19.3434 15.4658 19.0275 16.145 17.9165 17.3568L14.256 15.8054C14.5519 17.6248 14.9741 18.5255 16.6963 19.6839Z" fill="black"/>
<path d="M14.256 15.8054C14.1011 17.6245 13.7571 18.5462 11.8157 19.6839H16.6963C14.9741 18.5255 14.5519 17.6248 14.256 15.8054ZM14.256 15.8054L11.0023 17.3568C9.22266 16.1671 9.12927 15.4889 11.0023 14.254L14.256 15.8054ZM14.256 15.8054L15.8828 11.9269C14.6625 9.98775 13.6595 9.91289 12.629 11.9269L14.256 15.8054ZM14.256 15.8054L17.9165 14.254C19.3434 15.4658 19.0275 16.145 17.9165 17.3568L14.256 15.8054Z" stroke="black" stroke-width="1.15494"/>
<path d="M21.5877 30.0783H17.3172C19.0159 29.0828 19.3169 28.2763 19.4525 26.6846L16.6055 28.042C15.0483 27.001 14.9666 26.4076 16.6055 25.3271L19.4525 26.6846L18.0289 23.2909C18.9305 21.5286 19.8081 21.5941 20.8759 23.2909L19.4525 26.6846L22.6554 25.3271C23.9039 26.3874 23.6275 26.9817 22.6554 28.042L19.4525 26.6846C19.7114 28.2766 20.0808 29.0647 21.5877 30.0783Z" fill="black"/>
<path d="M19.4525 26.6846C19.3169 28.2763 19.0159 29.0828 17.3172 30.0783H21.5877C20.0808 29.0647 19.7114 28.2766 19.4525 26.6846ZM19.4525 26.6846L16.6055 28.042C15.0483 27.001 14.9666 26.4076 16.6055 25.3271L19.4525 26.6846ZM19.4525 26.6846L20.8759 23.2909C19.8081 21.5941 18.9305 21.5286 18.0289 23.2909L19.4525 26.6846ZM19.4525 26.6846L22.6554 25.3271C23.9039 26.3874 23.6275 26.9817 22.6554 28.042L19.4525 26.6846Z" stroke="black" stroke-width="1.15494"/>
<path d="M40.4093 30.0783H44.6799C42.9811 29.0828 42.6801 28.2763 42.5446 26.6846L45.3916 28.042C46.9488 27.001 47.0305 26.4076 45.3916 25.3271L42.5446 26.6846L43.9682 23.2909C43.0665 21.5286 42.1889 21.5941 41.1212 23.2909L42.5446 26.6846L39.3417 25.3271C38.0932 26.3874 38.3695 26.9817 39.3417 28.042L42.5446 26.6846C42.2857 28.2766 41.9163 29.0647 40.4093 30.0783Z" fill="black"/>
<path d="M42.5446 26.6846C42.6801 28.2763 42.9811 29.0828 44.6799 30.0783H40.4093C41.9163 29.0647 42.2857 28.2766 42.5446 26.6846ZM42.5446 26.6846L45.3916 28.042C46.9488 27.001 47.0305 26.4076 45.3916 25.3271L42.5446 26.6846ZM42.5446 26.6846L41.1212 23.2909C42.1889 21.5941 43.0665 21.5286 43.9682 23.2909L42.5446 26.6846ZM42.5446 26.6846L39.3417 25.3271C38.0932 26.3874 38.3695 26.9817 39.3417 28.042L42.5446 26.6846Z" stroke="black" stroke-width="1.15494"/>
<path d="M40.4093 60.1068L44.6799 60.1068C42.9811 61.1022 42.6801 61.9087 42.5446 63.5005L45.3916 62.143C46.9488 63.184 47.0305 63.7775 45.3916 64.858L42.5446 63.5005L43.9682 66.8941C43.0665 68.6564 42.1889 68.5909 41.1212 66.8941L42.5446 63.5005L39.3417 64.858C38.0932 63.7976 38.3695 63.2034 39.3417 62.143L42.5446 63.5005C42.2857 61.9085 41.9163 61.1204 40.4093 60.1068Z" fill="black"/>
<path d="M42.5446 63.5005C42.6801 61.9087 42.9811 61.1022 44.6799 60.1068L40.4093 60.1068C41.9163 61.1204 42.2857 61.9085 42.5446 63.5005ZM42.5446 63.5005L45.3916 62.143C46.9488 63.184 47.0305 63.7775 45.3916 64.858L42.5446 63.5005ZM42.5446 63.5005L41.1212 66.8941C42.1889 68.5909 43.0665 68.6564 43.9682 66.8941L42.5446 63.5005ZM42.5446 63.5005L39.3417 64.858C38.0932 63.7976 38.3695 63.2034 39.3417 62.143L42.5446 63.5005Z" stroke="black" stroke-width="1.15494"/>
<path d="M21.5877 60.1068L17.3172 60.1068C19.0159 61.1022 19.3169 61.9087 19.4525 63.5005L16.6055 62.143C15.0483 63.184 14.9666 63.7775 16.6055 64.858L19.4525 63.5005L18.0289 66.8941C18.9305 68.6564 19.8081 68.5909 20.8759 66.8941L19.4525 63.5005L22.6554 64.858C23.9039 63.7976 23.6276 63.2034 22.6554 62.143L19.4525 63.5005C19.7114 61.9085 20.0808 61.1204 21.5877 60.1068Z" fill="black"/>
<path d="M19.4525 63.5005C19.3169 61.9087 19.0159 61.1022 17.3172 60.1068L21.5877 60.1068C20.0808 61.1204 19.7114 61.9085 19.4525 63.5005ZM19.4525 63.5005L16.6055 62.143C15.0483 63.184 14.9666 63.7775 16.6055 64.858L19.4525 63.5005ZM19.4525 63.5005L20.8759 66.8941C19.8081 68.5909 18.9305 68.6564 18.0289 66.8941L19.4525 63.5005ZM19.4525 63.5005L22.6554 64.858C23.9039 63.7976 23.6276 63.2034 22.6554 62.143L19.4525 63.5005Z" stroke="black" stroke-width="1.15494"/>
<path d="M44.146 70.5012L49.0266 70.5012C47.0852 71.6388 46.7412 72.5605 46.5863 74.3797L49.84 72.8283C51.6196 74.018 51.713 74.6962 49.84 75.9311L46.5863 74.3797L48.2133 78.2581C47.1828 80.2722 46.1798 80.1973 44.9595 78.2581L46.5863 74.3797L42.9258 75.9311C41.4989 74.7193 41.8148 74.0401 42.9258 72.8283L46.5863 74.3797C46.2903 72.5602 45.8682 71.6595 44.146 70.5012Z" fill="black"/>
<path d="M46.5863 74.3797C46.7412 72.5605 47.0852 71.6388 49.0266 70.5012L44.146 70.5012C45.8682 71.6595 46.2903 72.5602 46.5863 74.3797ZM46.5863 74.3797L49.84 72.8283C51.6196 74.018 51.713 74.6962 49.84 75.9311L46.5863 74.3797ZM46.5863 74.3797L44.9595 78.2581C46.1798 80.1973 47.1828 80.2722 48.2133 78.2581L46.5863 74.3797ZM46.5863 74.3797L42.9258 75.9311C41.4989 74.7193 41.8148 74.0401 42.9258 72.8283L46.5863 74.3797Z" stroke="black" stroke-width="1.15494"/>
<path d="M6.24202 14.4589C6.25029 14.1156 6.25856 13.76 6.26683 13.3919C6.2751 13.0197 6.27924 12.6392 6.27924 12.2505H3.23962L3.21481 11.2704C3.26857 11.2001 3.34714 11.0636 3.45053 10.861C3.55392 10.6583 3.67178 10.4164 3.80412 10.1352C3.94059 9.84982 4.08534 9.53758 4.23835 9.19847C4.3955 8.85936 4.55059 8.51817 4.7036 8.17492C5.06339 7.37263 5.45627 6.48349 5.88223 5.5075H7.73702C7.72875 5.76391 7.72048 6.02651 7.71221 6.29532C7.70807 6.56 7.70394 6.8226 7.6998 7.08314C7.69566 7.33955 7.69153 7.58768 7.68739 7.82754C7.68739 8.0674 7.68739 8.28865 7.68739 8.49129C7.68739 8.97101 7.68946 9.40318 7.69359 9.78778C7.69773 10.1724 7.70393 10.5487 7.7122 10.9168H8.31392L8.31392 12.2505H7.76803C7.78044 12.5731 7.79491 12.908 7.81145 13.2554C7.83213 13.6028 7.85488 13.9502 7.87969 14.2976L6.24202 14.4589ZM6.29165 9.94907C6.29165 9.57274 6.29165 9.20467 6.29165 8.84488C6.29165 8.48095 6.28751 8.12943 6.27924 7.79032L4.87109 10.9168H6.29165L6.29165 9.94907Z" fill="black"/>
<path d="M54.6003 75.7262C54.592 76.0694 54.5837 76.4251 54.5755 76.7932C54.5672 77.1654 54.563 77.5458 54.563 77.9346L57.6027 77.9346L57.6275 78.9147C57.5737 78.985 57.4951 79.1215 57.3918 79.3241C57.2884 79.5267 57.1705 79.7687 57.0382 80.0499C56.9017 80.3352 56.7569 80.6475 56.6039 80.9866C56.4468 81.3257 56.2917 81.6669 56.1387 82.0101C55.7789 82.8124 55.386 83.7016 54.9601 84.6776L53.1053 84.6776C53.1135 84.4212 53.1218 84.1585 53.1301 83.8897C53.1342 83.6251 53.1383 83.3625 53.1425 83.1019C53.1466 82.8455 53.1508 82.5974 53.1549 82.3575C53.1549 82.1177 53.1549 81.8964 53.1549 81.6938C53.1549 81.214 53.1528 80.7819 53.1487 80.3973C53.1446 80.0127 53.1384 79.6363 53.1301 79.2683L52.5284 79.2683L52.5284 77.9346L53.0743 77.9346C53.0618 77.612 53.0474 77.277 53.0308 76.9296C53.0102 76.5822 52.9874 76.2349 52.9626 75.8875L54.6003 75.7262ZM54.5506 80.236C54.5506 80.6123 54.5506 80.9804 54.5506 81.3402C54.5506 81.7041 54.5548 82.0556 54.563 82.3947L55.9712 79.2683L54.5506 79.2683L54.5506 80.236Z" fill="black"/>
</svg>

<svg width="61" height="91" fill="none" xmlns="http://www.w3.org/2000/svg"><rect x=".39" y=".05" width="60.06" height="90.09" rx="4.62" fill="#fff"/><mask id="a" style="mask-type:alpha" maskUnits="userSpaceOnUse" x="1" y="1" width="58" height="87"><path d="M11.28 2.36h42.24a4.04 4.04 0 0 1 4.04 4.04v64.16c0 1.24-1 2.25-2.25 2.25a3.4 3.4 0 0 0-3.35 2.81l-1.12 6.39c-.16.9.25 1.8 1.03 2.26.9.54.53 1.92-.52 1.94l-44.94.94a4.04 4.04 0 0 1-4.13-4.18l2.04-62.75a2.94 2.94 0 0 1 2.95-2.85 4.1 4.1 0 0 0 4.1-4.1V8.23c0-.96-.46-1.87-1.23-2.44a1.9 1.9 0 0 1 1.14-3.42Z" fill="#C4C4C4" stroke="#000" stroke-width="1.15"/></mask><g mask="url(#a)"><rect x="6.17" y="5.25" width="49.66" height="79.69" rx="4.04" stroke="#000" stroke-width="1.15"/></g><path d="M16.7 19.68h-4.88c1.94-1.13 2.28-2.06 2.44-3.87L11 17.36c-1.78-1.2-1.87-1.87 0-3.1l3.26 1.55-1.63-3.88c1.03-2.02 2.03-1.94 3.25 0l-1.62 3.88 3.66-1.56c1.42 1.22 1.1 1.9 0 3.1l-3.66-1.54c.3 1.81.71 2.72 2.44 3.87Z" fill="#000"/><path d="M14.26 15.8c-.16 1.82-.5 2.75-2.44 3.88h4.88c-1.73-1.15-2.15-2.06-2.44-3.87Zm0 0L11 17.37c-1.78-1.2-1.87-1.87 0-3.1l3.26 1.55Zm0 0 1.62-3.87c-1.22-1.94-2.22-2.02-3.25 0l1.63 3.88Zm0 0 3.66-1.55c1.42 1.22 1.1 1.9 0 3.1l-3.66-1.54Z" stroke="#000" stroke-width="1.15"/><path d="M21.59 30.08h-4.27c1.7-1 2-1.8 2.13-3.4l-2.84 1.36c-1.56-1.04-1.64-1.63 0-2.71l2.84 1.35-1.42-3.39c.9-1.76 1.78-1.7 2.85 0l-1.43 3.4 3.2-1.36c1.25 1.06.98 1.65 0 2.71l-3.2-1.36c.26 1.6.63 2.38 2.14 3.4Z" fill="#000"/><path d="M19.45 26.68c-.13 1.6-.43 2.4-2.13 3.4h4.27c-1.5-1.02-1.88-1.8-2.14-3.4Zm0 0-2.84 1.36c-1.56-1.04-1.64-1.63 0-2.71l2.84 1.35Zm0 0 1.43-3.39c-1.07-1.7-1.95-1.76-2.85 0l1.42 3.4Zm0 0 3.2-1.35c1.25 1.06.98 1.65 0 2.71l-3.2-1.36Z" stroke="#000" stroke-width="1.15"/><path d="M40.4 30.08h4.28c-1.7-1-2-1.8-2.14-3.4l2.85 1.36c1.56-1.04 1.64-1.63 0-2.71l-2.85 1.35 1.43-3.39c-.9-1.76-1.78-1.7-2.85 0l1.42 3.4-3.2-1.36c-1.25 1.06-.97 1.65 0 2.71l3.2-1.36c-.25 1.6-.62 2.38-2.13 3.4Z" fill="#000"/><path d="M42.54 26.68c.14 1.6.44 2.4 2.14 3.4h-4.27c1.5-1.02 1.88-1.8 2.13-3.4Zm0 0 2.85 1.36c1.56-1.04 1.64-1.63 0-2.71l-2.85 1.35Zm0 0-1.42-3.39c1.07-1.7 1.95-1.76 2.85 0l-1.43 3.4Zm0 0-3.2-1.35c-1.25 1.06-.97 1.65 0 2.71l3.2-1.36Z" stroke="#000" stroke-width="1.15"/><path d="M40.4 60.1h4.28c-1.7 1-2 1.8-2.14 3.4l2.85-1.36c1.56 1.04 1.64 1.64 0 2.72l-2.85-1.36 1.43 3.4c-.9 1.76-1.78 1.7-2.85 0l1.42-3.4-3.2 1.36c-1.25-1.06-.97-1.66 0-2.72l3.2 1.36c-.25-1.6-.62-2.38-2.13-3.4Z" fill="#000"/><path d="M42.54 63.5c.14-1.6.44-2.4 2.14-3.4h-4.27c1.5 1.02 1.88 1.8 2.13 3.4Zm0 0 2.85-1.36c1.56 1.04 1.64 1.64 0 2.72l-2.85-1.36Zm0 0-1.42 3.4c1.07 1.7 1.95 1.76 2.85 0l-1.43-3.4Zm0 0-3.2 1.36c-1.25-1.06-.97-1.66 0-2.72l3.2 1.36Z" stroke="#000" stroke-width="1.15"/><path d="M21.59 60.1h-4.27c1.7 1 2 1.8 2.13 3.4l-2.84-1.36c-1.56 1.04-1.64 1.64 0 2.72l2.84-1.36-1.42 3.4c.9 1.76 1.78 1.7 2.85 0l-1.43-3.4 3.2 1.36c1.25-1.06.98-1.66 0-2.72l-3.2 1.36c.26-1.6.63-2.38 2.14-3.4Z" fill="#000"/><path d="M19.45 63.5c-.13-1.6-.43-2.4-2.13-3.4h4.27c-1.5 1.02-1.88 1.8-2.14 3.4Zm0 0-2.84-1.36c-1.56 1.04-1.64 1.64 0 2.72l2.84-1.36Zm0 0 1.43 3.4c-1.07 1.7-1.95 1.76-2.85 0l1.42-3.4Zm0 0 3.2 1.36c1.25-1.06.98-1.66 0-2.72l-3.2 1.36Z" stroke="#000" stroke-width="1.15"/><path d="M44.15 70.5h4.88c-1.94 1.14-2.29 2.06-2.44 3.88l3.25-1.55c1.78 1.19 1.87 1.87 0 3.1l-3.25-1.55 1.62 3.88c-1.03 2.01-2.03 1.94-3.25 0l1.63-3.88-3.66 1.55c-1.43-1.21-1.12-1.89 0-3.1l3.66 1.55c-.3-1.82-.72-2.72-2.44-3.88Z" fill="#000"/><path d="M46.59 74.38c.15-1.82.5-2.74 2.44-3.88h-4.88c1.72 1.16 2.14 2.06 2.44 3.88Zm0 0 3.25-1.55c1.78 1.19 1.87 1.87 0 3.1l-3.25-1.55Zm0 0-1.63 3.88c1.22 1.94 2.22 2.01 3.25 0l-1.62-3.88Zm0 0-3.66 1.55c-1.43-1.21-1.12-1.89 0-3.1l3.66 1.55Z" stroke="#000" stroke-width="1.15"/><path d="M6.24 14.46a658.44 658.44 0 0 0 .04-2.21H3.24l-.03-.98c.06-.07.14-.2.24-.4a25.85 25.85 0 0 0 .79-1.67l.46-1.03 1.18-2.66h1.86a530.51 530.51 0 0 0-.05 2.32v.66a121.84 121.84 0 0 0 .02 2.43h.6v1.33h-.54a110.33 110.33 0 0 0 .11 2.05l-1.64.16Zm.05-4.51v-1.1l-.01-1.06-1.4 3.13h1.41v-.97ZM54.6 75.73a559.4 559.4 0 0 0-.04 2.2h3.04l.03.98c-.06.08-.13.21-.24.41A25.58 25.58 0 0 0 56.6 81L56.14 82l-1.18 2.67h-1.85a713.76 713.76 0 0 0 .04-2.32v-.67a122.63 122.63 0 0 0-.02-2.42h-.6v-1.34h.54a111.51 111.51 0 0 0-.1-2.04l1.63-.16Zm-.05 4.5v1.11l.01 1.05 1.41-3.12h-1.42v.97Z" fill="#000"/></svg>
